svg/fluentui-system-icons/ic_fluent_food_pizza_20_filled.svg

<svg width="20" height="20" viewBox="0 0 20 20" fill="none" xmlns="http://www.w3.org/2000/svg">
<path d="M4 3.95582C4 2.86113 4.89499 1.93379 6.03044 2.00371C10.4775 2.27759 14.3769 3.77443 17.4321 6.69101C18.2985 7.51812 18.1281 8.86865 17.2292 9.55938C17.1502 9.62005 17.0687 9.68268 16.9849 9.74698L16.5884 9.3058L16.5814 9.29862C13.6447 6.28422 9.38939 4.51399 4.87127 4.51399H4V3.95582ZM4 5.51322V16.4988C4 17.7309 5.40582 18.4372 6.39545 17.7002C6.90577 17.3202 7.47522 16.8957 8.00276 16.5017V16.5036C8.00276 17.0554 8.45057 17.5028 9.00297 17.5028C9.55536 17.5028 10.0032 17.0554 10.0032 16.5036V14.5023C10.0032 14.2264 10.2271 14.0027 10.5033 14.0027C10.7568 14.0027 10.9685 14.1952 10.9995 14.4432V15.0033C10.9995 15.5552 11.4473 16.0025 11.9997 16.0025C12.5521 16.0025 12.9999 15.5552 12.9999 15.0033V12.7648C13.8237 12.1597 15.085 11.2015 16.189 10.357L15.8577 9.98843C13.119 7.18137 9.12977 5.51322 4.87127 5.51322H4ZM8.24788 8.25472C8.24788 8.66725 7.91313 9.00167 7.5002 9.00167C7.08726 9.00167 6.75251 8.66725 6.75251 8.25472C6.75251 7.84218 7.08726 7.50776 7.5002 7.50776C7.91313 7.50776 8.24788 7.84218 8.24788 8.25472ZM11.2232 10.2554C11.2232 10.668 10.8884 11.0024 10.4755 11.0024C10.0625 11.0024 9.72772 10.668 9.72772 10.2554C9.72772 9.84284 10.0625 9.50839 10.4755 9.50839C10.8884 9.50839 11.2232 9.84284 11.2232 10.2554ZM8.25573 12.7573C8.25573 13.172 7.91922 13.5082 7.50412 13.5082C7.08902 13.5082 6.75251 13.172 6.75251 12.7573C6.75251 12.3426 7.08902 12.0064 7.50412 12.0064C7.91922 12.0064 8.25573 12.3426 8.25573 12.7573Z" fill="#212121"/>
</svg>

<svg xmlns="http://www.w3.org/2000/svg" width="20" height="20"><path d="M4 3.956c0-1.095.895-2.022 2.03-1.952 4.447.274 8.347 1.77 11.402 4.687.867.827.696 2.178-.203 2.868l-.244.188-.397-.441-.007-.007C13.645 6.284 9.39 4.514 4.871 4.514H4v-.558Zm0 1.557V16.5c0 1.232 1.406 1.938 2.395 1.201l1.608-1.198v.002a1 1 0 0 0 2 0v-2.002a.5.5 0 0 1 .996-.059v.56a1 1 0 0 0 2 0v-2.238c.825-.605 2.086-1.564 3.19-2.408l-.331-.369C13.119 7.181 9.13 5.513 4.87 5.513H4Zm4.248 2.742a.747.747 0 1 1-1.495-.001.747.747 0 0 1 1.495 0Zm2.975 2a.747.747 0 1 1-1.495 0 .747.747 0 0 1 1.495 0Zm-2.967 2.502a.751.751 0 1 1-1.503 0 .751.751 0 0 1 1.503 0Z"/></svg>
